X:1
T:Title
%%score { ( 1 4 5 ) | ( 2 3 ) }
L:1/8
M:4/4
K:F
V:1 treble nm="Grand Piano, Piano"
V:4 treble 
V:5 treble 
V:2 treble 
V:3 treble 
V:1
 z4 z2[Q:1/4=108] A2 | d2 e2 f2 e2 | d2 ^c2 d2 A2 | B2 A2 G2 B2 | A6 z2 | d2 c2 BcBA | z4 z2 G2 | %7
 c2 B2 ABAG | z4 z2 F2 | E2 D2 E2 FE | D6 A2 | G2 F2 E2 D2 | CDC[K:bass]B, A,3 A, | %13
 D2 E2[K:treble] F2 G2 | A6 A2 | B2 c2 BcBA | z4[K:bass] z2[K:treble] G2 | A2 B2 ABAG | %18
 z4[K:bass] z2 F2 | z4 E2 z2 |[M:3/4] [F,A,D]6 |] %21
V:2
 z8 | z4 z2 A,2 | D2 E2 F2 E2 | D6 E2 | A,4 z2 A2 | [A,C]4- [E,A,-C-]2 [^F,A,C]2 | [B,D]8 | G,8 | %8
 C4 z4 | [A,^C]4- [A,,A,C]4 | [D,F,A,]8 | [D,G,B,]8 | [E,G,]2- [B,,E,G,-]2 [A,,^C,E,G,]4 | %13
 [D,F,]8 | D,2 E,2 F,2 D,2 | [DG]4- [F,DG]4 | [CE]8 | [CF]4- [E,CF]4 | [A,D]8 | %19
 [B,,G,B,]4 z2[K:treble] FE |[M:3/4][K:bass] D,6 |] %21
V:3
 x8 | x8 | x8 | [D,G,]8 | z4 A,,4 | D,4 z4 | G,4 z4 | C,4 D,2 E,2 | [F,A,]8 | E,4 z4 | x8 | x8 | %12
 C,2 z2 z4 | A,,4 B,,4 | x8 | G,4 z4 | E,4 z4 | F,4 z4 | D,4 z4 | z4 A,,4[K:treble] | %20
[M:3/4][K:bass] x6 |] %21
V:4
 x8 | x8 | x8 | x8 | [^CE]8 | ^F8 | G6 z2 | E8 | F6 z2 | x8 | x8 | x8 | x3[K:bass] x5 | %13
 x4[K:treble] x4 | [A,F]8 | x8 | G6[K:bass][K:treble] z2 | x8 | F6[K:bass] z2 | E2 D2 [A,^C]4 | %20
[M:3/4] x6 |] %21
V:5
 x8 | x8 | x8 | x8 | x8 | x8 | z4 F,4 | x8 | z4 D4 | x8 | x8 | x8 | x3[K:bass] x5 | %13
 x4[K:treble] x4 | x8 | x8 | z4[K:bass] C,4[K:treble] | x8 | z4[K:bass] C,4 | x8 |[M:3/4] x6 |] %21

